client/src/assets/icons/add-bookmark.svg

<svg width="30" height="30" viewBox="0 0 30 30" fill="none" xmlns="http://www.w3.org/2000/svg">
<path d="M15 9.37497L15 14.9999M15 14.9999V20.6249M15 14.9999H20.625M15 14.9999H9.375M26.25 7.96873L26.25 22.0313C26.25 24.3612 24.3612 26.25 22.0312 26.25H7.96875C5.6388 26.25 3.75 24.3612 3.75 22.0313V7.96873C3.75 5.63879 5.6388 3.75 7.96875 3.75H22.0312C24.3612 3.75 26.25 5.63879 26.25 7.96873Z" stroke="black" stroke-width="2.45823" stroke-linecap="round"/>
</svg>

<svg xmlns="http://www.w3.org/2000/svg" width="30" height="30" fill="none"><path stroke="#000" stroke-linecap="round" stroke-width="2.4582" d="M15 9.375v5.6249m0 0v5.625m0-5.625h5.625m-5.625 0H9.375M26.25 7.9687v14.0626c0 2.3299-1.8888 4.2187-4.2188 4.2187H7.9688c-2.33 0-4.2188-1.8888-4.2188-4.2187V7.9687c0-2.33 1.8888-4.2187 4.2188-4.2187h14.0624c2.33 0 4.2188 1.8888 4.2188 4.2187Z"/></svg>
